(
~intro = Buffer.read(s,"/Users/maxlouisraugel/Documents/son/'architecture' soundtrack/edit 2/0 intro.wav");
~beginning = Buffer.read(s,"/Users/maxlouisraugel/Documents/son/'architecture' soundtrack/edit 2/1 beginning.wav");
~lifeconditions = Buffer.read(s,"/Users/maxlouisraugel/Documents/son/'architecture' soundtrack/edit 2/2 life conditions.wav");
~buildless = Buffer.read(s,"/Users/maxlouisraugel/Documents/son/'architecture' soundtrack/edit 2/3 build less.wav");
~containers = Buffer.read(s,"/Users/maxlouisraugel/Documents/son/'architecture' soundtrack/edit 2/4 containers.wav");
~spacechain = Buffer.read(s,"/Users/maxlouisraugel/Documents/son/'architecture' soundtrack/edit 2/5 space-chain.wav");
~fin = Buffer.read(s,"/Users/maxlouisraugel/Documents/son/'architecture' soundtrack/edit 2/6 fin.wav");
~soundtrack = Buffer.read(s, "/Users/maxlouisraugel/Documents/son/'architecture' soundtrack/edit 2/Architecture_soundtrack.wav");
)